X:1
T:Title
%%score [ 1 2 ]
L:1/8
Q:1/4=140
M:3/4
K:C
V:1 treble nm="Soprano" snm="S"
V:2 bass nm="Bass" snm="B"
V:1
"^Thomas Campion\n(1567-1620)""^When Laura smiles" d2 B2 e2 | (dcBA G2) | (AB) c2 B2 | (AG^FE D2) | %4
w: ~When Lau- ra|smiles * * * *|her * sight re-|vives * * * *|
w: The dain- ty|sprites * * * *|that * still re|main * * * *|
w: Di- an- a's|eyes * * * *|are * not a-|dorn'd * * * *|
w: Love hath no|fire * * * *|but * what he|steals * * * *|
 G2 A2 A2 |[M:3/4] G6 | d2 B2 e2 | ((dcBA) G2) | ((AB) c2) B2 | (AG^FE D2) | G2 A2 A2 | G6 |: %12
w: both night and|day.|The earth and|hea\- * * * ven|view * with de-|light * * * *|her wan- ton|play.|
w: in fleet- ing|air|Af- fect for|pas\- * * * time|to * * un-|twine * * * *|her tress- ed|hair.|
w: with great- er|power,|Than Lau- ra's|when * * * *|she * lists a-|while * * * *|for sport to|lower.|
w: from her bright|eyes.|Time hath no|power, * * * *|but * that which|in * * * *|her plea- sure|lies.|
 A4 c2 | B4 A2 | ^G4 A2- | A2 B2 B2 | c4 A2 | B4 c2 | d4 d2 | A4 B2 | c4 c2 | G4 A2 | B6 | %23
w: And her|speech with|ev- er\-|* flow- ing|mu- sic|doth re-|pair The|cru- el|wounds of|sor- row|and|
w: And the|birds think|sweet Au\-|* ro- ra,|morn- ing's|queen, doth|shine From|her bright|sphere when|Lau- ra|shews|
w: But when|she her|eyes en\-|* clos- eth,|blind- ness|doth ap-|pear The|chief- est|grace of|beau- ty,|sweet-|
w: For she,|with her|di- vine|* beau- ties,|all the|world sub-|dues, And|fills with|heav'n- ly|spi- rits|my|
 ((AG) A2) A2 | G6 :| %25
w: un\- * tam'd des-|pair.|
w: her * looks di-|vine.|
w: ly * seat- ed|there.|
w: hum\- * * ble|muse.|
V:2
 G,4 C,2 | G,6 | F,4 G,2 | D,3 C,B,,A,, | G,,2 D,4 |[M:3/4] G,,6 | G,4 C,2 | G,6 | F,4 G,2 | %9
 D,3 C,B,,A,, | G,,2 D,4 | G,,6 |: F,4 C,2 | D,4 F,2 | E,4 C,2- | C,2 D,2 E,2 | A,,4 A,2 | %17
 G,3 F, E,2 | D,6 | F,3 E, D,2 | C,6 | E,3 D, C,2 | B,,4 E,2- | E,2 D,4 | G,,6 :| %25

